X: 056
T: Lady Betty Hamiltons Reel
B: 204 Favourite Country Dances
N: Published by Straight & Skillern, London ca.1775
F: http://imslp.org/wiki/204_Favourite_Country_Dances_(Various) p.28 #56
Z: 2014 John Chambers <jc:trillian.mit.edu>
M: 2/4
L: 1/8
K: F
% - - - - - - - - - - - - - - - - - - - - - - - - -
|:\
c2dF | c2dF | c2Gc | BFcF |\
c2dF | c2dF | B2GB | AFF2 :|
|:\
C2GE | cGdf | e2ge | affa |\
C2GE | BFcF | d2GB | AFF2 :|
% - - - - - - - - - - - - - - - - - - - - - - - - -
%%begintext align
%% Set and change sides the same back
%% again cross over Right & left
%%endtext

%%sep 1 1 500
%%sep 1 1 500
